images_elementary_svg/cmd/lc_formatcelldialog.svg

<svg height="24" width="24" xmlns="http://www.w3.org/2000/svg" xmlns:xlink="http://www.w3.org/1999/xlink"><linearGradient id="a" gradientUnits="userSpaceOnUse" x1="17.461565" x2="17.461565" y1="12.132274" y2="23.876352"><stop offset="0" stop-color="#f6f6f6"/><stop offset="1" stop-color="#ccc"/></linearGradient><linearGradient id="b" gradientUnits="userSpaceOnUse" x1="14.525564" x2="14.525564" y1="12.132274" y2="23.879738"><stop offset="0" stop-color="#aaa"/><stop offset="1" stop-color="#8c8c8c"/></linearGradient><linearGradient id="c" gradientUnits="userSpaceOnUse" x1="10.127912" x2="9.984243" y1="12.048073" y2="3.95193"><stop offset="0" stop-color="#e5e5e5"/><stop offset="1" stop-color="#ababab"/></linearGradient><linearGradient id="d" gradientTransform="matrix(.44576989 0 0 .44993664 .801525 -.024539)" gradientUnits="userSpaceOnUse" x1="25.132275" x2="25.132275" y1="15.499894" y2="48.395687"><stop offset="0" stop-color="#fafafa"/><stop offset="1" stop-color="#e2e1de"/></linearGradient><linearGradient id="e" gradientTransform="matrix(.48483606 0 0 .5270602 -.165352 -.400235)" gradientUnits="userSpaceOnUse" x1="23.99999" x2="23.99999" xlink:href="#f" y1="4.999989" y2="43"/><linearGradient id="f"><stop offset="0" stop-color="#fff"/><stop offset=".06316455" stop-color="#fff" stop-opacity=".235294"/><stop offset=".95056331" stop-color="#fff" stop-opacity=".156863"/><stop offset="1" stop-color="#fff" stop-opacity=".392157"/></linearGradient><linearGradient id="g" gradientTransform="matrix(.49999998 0 0 .25 -.999998 2.999819)" gradientUnits="userSpaceOnUse" x1="23.954144" x2="23.954144" y1="15.999304" y2="19.963179"><stop offset="0"/><stop offset="1" stop-opacity="0"/></linearGradient><linearGradient id="h" gradientUnits="userSpaceOnUse" x1="8.295028" x2="8.295028" y1="-4.283906" y2="16.849756"><stop offset="0" stop-color="#cdf87e"/><stop offset=".26238" stop-color="#a2e34f"/><stop offset=".66093999" stop-color="#68b723"/><stop offset="1" stop-color="#1d7e0d"/></linearGradient><linearGradient id="i" gradientUnits="userSpaceOnUse" x1="11.001243" x2="11.001243" xlink:href="#f" y1="2.268861" y2="19.728326"/><rect fill="url(#d)" height="20" rx=".527778" ry=".555556" width="19" x="2.000001" y="1.999818"/><path d="m2.50125 2.498592h17.938934v19.501226h-17.938934z" fill="none" stroke="url(#e)" stroke-linecap="round" stroke-linejoin="round" stroke-width="1.100222"/><path d="m1.000001 6.999818h21v1h-21z" fill="url(#g)" opacity=".15"/><path d="m1.5 6.163481v15.300155c0 .574146.462218 1.036364 1.036364 1.036364h17.927455c.574146 0 1.036364-.462218 1.036364-1.036364v-15.300155" fill="none" opacity=".3" stroke="#000"/><path d="m2.536364 1.499845c-.574145 0-1.036364.462218-1.036364 1.036364v3.963609h20.000182v-3.963609c0-.574146-.462218-1.036364-1.036363-1.036364z" fill="url(#h)"/><g fill="none"><path d="m2.536364 1.499845c-.574146 0-1.036364.462218-1.036364 1.036364l.000001 3.963609h20.000182l-.000001-3.963609c0-.574146-.462218-1.036364-1.036364-1.036364z" opacity=".4" stroke="#126400" stroke-linecap="round"/><path d="m17.500013 16.499818h-12.9999991zm-.0096-5.98755-12.9904261-.0093v7.99685h12.9999991zm.0096 3.98755h-13m13-2h-13m2.5453926-1.979205-.017614 7.979125m2.5487754-7.944393-.0034 7.944393m2.534768-7.972179.0037 7.972179m2.521631-7.999964.01314 7.999964" opacity=".2" stroke="#fff"/><path d="m2.500001 2.499818v3h18v-3z" opacity=".5" stroke="url(#i)" stroke-linecap="round" stroke-linejoin="round"/></g><path d="m6.000001 7h1v14.999818h-1z" opacity=".321"/><path d="m11.000001 7h1v14.999818h-1z" opacity=".321"/><path d="m16.000002 7h1v14.999818h-1z" opacity=".321"/><path d="m2.000001 9.999818h4v1h-4z" opacity=".321"/><path d="m7.000001 9.999818h4v1h-4z" opacity=".321"/><path d="m12.000001 9.999818h4v1h-4z" opacity=".321"/><path d="m17.000002 9.999818h4v1h-4z" opacity=".321"/><path d="m2.000001 13.999818h4v1h-4z" opacity=".321"/><path d="m7.000001 13.999818h4v1h-4z" opacity=".321"/><path d="m12.000001 13.999818h4v1h-4z" opacity=".321"/><path d="m17.000002 13.999818h4v1h-4z" opacity=".321"/><path d="m2.000001 17.999819h4v1h-4z" opacity=".321"/><path d="m7.000001 17.999819h4v1h-4z" opacity=".321"/><path d="m12.000001 17.999819h4v1h-4z" opacity=".321"/><path d="m17.000002 17.999819h4v1h-4z" opacity=".321"/><g fill="#126400"><path d="m6.000001 1.999818h1v4.000182h-1z" opacity=".4"/><path d="m11.000001 1.999818h1v4.000182h-1z" opacity=".4"/><path d="m16.000002 1.999818h1v4.000182h-1z" opacity=".4"/></g><path d="m7 11h4v3h-4z" fill="#fcaf3e"/><path d="m7 10c-.554 0-1 .446-1 1v3c0 .554.446 1 1 1h4c.554 0 1-.446 1-1v-3c0-.554-.446-1-1-1zm0 1h4v3h-4z" fill="#ce5c00"/><g transform="matrix(.73400013 0 0 .73400013 11.632274 12.132274)"><path d="m16.798828 12.5c-.165264 0-.298828.211412-.298828.474609v.763672h-.09766l-1.123047.480469-.07227.07422-.552734-.552735c-.18611-.186109-.430016-.241858-.546875-.125l-.992188.992188c-.116858.116859-.06111.360765.125.546875l.552735.552734-.07422.07227-.480469 1.123047v.097651h-.763663c-.263197 0-.474609.133564-.474609.298828v1.402344c0 .165264.211412.298828.474609.298828h.763672v.105469l.480469 1.123047.07031.06836-.548828.548828c-.186109.186109-.241858.430016-.125.546875l.992188.992188c.116859.116859.360765.06111.546875-.125l.548828-.548828.07617.07812 1.123047.482422h.09766v.753907c0 .263201.133564.474612.298828.474612h1.402344c.165264 0 .298828-.211411.298828-.474609v-.753907h.105469l1.123047-.482422.07227-.07422.544922.544922c.18611.186108.430016.241859.546875.125l.992188-.992188c.116858-.116859.06111-.360766-.125-.546875l-.544922-.544922.07422-.07227.482422-1.123047v-.105462h.753907c.26319 0 .474602-.133564.474602-.298828v-1.402344c0-.165264-.211412-.298828-.474609-.298828h-.753907v-.09766l-.482422-1.123047-.07812-.07617.548828-.548828c.186109-.18611.241858-.430016.125-.546875l-.992188-.992188c-.116859-.116858-.360765-.06111-.546875.125l-.548828.548828-.06836-.07031-1.123047-.480469h-.105472v-.763672c0-.263197-.133564-.474609-.298828-.474609zm.705078 4c.829457 0 1.503906.674449 1.503906 1.503906.000001.829457-.674449 1.503906-1.503906 1.503906-.829457.000001-1.503906-.674449-1.503906-1.503906s.674449-1.503906 1.503906-1.503906z" display="block" fill="url(#a)" stroke="url(#b)" stroke-linejoin="round" transform="matrix(1.3623976 0 0 1.3623976 -15.847782 -16.528981)"/><path d="m8 3.465116c-2.5005771 0-4.5348837 2.034307-4.5348837 4.534884s2.0343066 4.534884 4.5348837 4.534884c2.500576-.000001 4.534884-2.034307 4.534884-4.534884s-2.034308-4.534884-4.534884-4.534884zm0 2.093024c1.347907 0 2.44186 1.093953 2.44186 2.44186s-1.093953 2.44186-2.44186 2.44186-2.4418605-1.093953-2.4418605-2.44186 1.0939535-2.44186 2.4418605-2.44186z" opacity=".05"/><path d="m8.0000001 4c-2.2056004 0-4.0000002 1.7944001-4.0000002 4.0000008 0 2.2055992 1.7943998 3.9999992 4.0000002 3.9999992 2.2055999 0 3.9999999-1.7944 3.9999999-3.9999992 0-2.2056007-1.7944-4.0000008-3.9999999-4.0000008z" fill="none" stroke="url(#c)" stroke-width="1.352275"/></g></svg>

<?xml version="1.0" encoding="UTF-8" standalone="no"?>
<svg
   xmlns:dc="http://purl.org/dc/elements/1.1/"
   xmlns:cc="http://creativecommons.org/ns#"
   xmlns:rdf="http://www.w3.org/1999/02/22-rdf-syntax-ns#"
   xmlns:svg="http://www.w3.org/2000/svg"
   xmlns="http://www.w3.org/2000/svg"
   xmlns:xlink="http://www.w3.org/1999/xlink"
   xmlns:sodipodi="http://sodipodi.sourceforge.net/DTD/sodipodi-0.dtd"
   xmlns:inkscape="http://www.inkscape.org/namespaces/inkscape"
   height="24"
   width="24"
   version="1.1"
   id="svg92"
   sodipodi:docname="lc_formatcelldialog.svg"
   inkscape:version="0.92.3 (2405546, 2018-03-11)"
   inkscape:export-filename="/home/rizmut/Documents/Rizmut/Github/libreoffice-style-elementary/images_elementary/cmd/lc_formatcelldialog.png"
   inkscape:export-xdpi="96"
   inkscape:export-ydpi="96">
  <metadata
     id="metadata98">
    <rdf:RDF>
      <cc:Work
         rdf:about="">
        <dc:format>image/svg+xml</dc:format>
        <dc:type
           rdf:resource="http://purl.org/dc/dcmitype/StillImage" />
        <dc:title></dc:title>
      </cc:Work>
    </rdf:RDF>
  </metadata>
  <defs
     id="defs96">
    <linearGradient
       id="a-3"
       gradientUnits="userSpaceOnUse"
       x1="17.461565"
       x2="17.461565"
       y1="12.132274"
       y2="23.876352">
      <stop
         offset="0"
         stop-color="#f6f6f6"
         id="stop2-6" />
      <stop
         offset="1"
         stop-color="#ccc"
         id="stop4-7" />
    </linearGradient>
    <linearGradient
       id="b-5"
       gradientUnits="userSpaceOnUse"
       x1="14.525564"
       x2="14.525564"
       y1="12.132274"
       y2="23.879738">
      <stop
         offset="0"
         stop-color="#aaa"
         id="stop7" />
      <stop
         offset="1"
         stop-color="#8c8c8c"
         id="stop9" />
    </linearGradient>
    <linearGradient
       id="c-3"
       gradientUnits="userSpaceOnUse"
       x1="10.127912"
       x2="9.9842434"
       y1="12.048073"
       y2="3.95193">
      <stop
         offset="0"
         stop-color="#e5e5e5"
         id="stop12-5" />
      <stop
         offset="1"
         stop-color="#ababab"
         id="stop14-6" />
    </linearGradient>
  </defs>
  <sodipodi:namedview
     pagecolor="#ffffff"
     bordercolor="#666666"
     borderopacity="1"
     objecttolerance="10"
     gridtolerance="10"
     guidetolerance="10"
     inkscape:pageopacity="0"
     inkscape:pageshadow="2"
     inkscape:window-width="1366"
     inkscape:window-height="696"
     id="namedview94"
     showgrid="true"
     inkscape:zoom="13.906433"
     inkscape:cx="10.655578"
     inkscape:cy="7.7134716"
     inkscape:window-x="0"
     inkscape:window-y="0"
     inkscape:window-maximized="1"
     inkscape:current-layer="svg92">
    <inkscape:grid
       type="xygrid"
       id="grid905"
       spacingx="0.5"
       spacingy="0.5"
       empspacing="2" />
  </sodipodi:namedview>
  <linearGradient
     id="a"
     gradientTransform="matrix(.44576989 0 0 .44993664 .801525 -.024539)"
     gradientUnits="userSpaceOnUse"
     x1="25.132275"
     x2="25.132275"
     y1="15.499894"
     y2="48.395687">
    <stop
       offset="0"
       stop-color="#fafafa"
       id="stop2" />
    <stop
       offset="1"
       stop-color="#e2e1de"
       id="stop4" />
  </linearGradient>
  <linearGradient
     id="b"
     gradientTransform="matrix(.48483606 0 0 .5270602 -.165352 -.400235)"
     gradientUnits="userSpaceOnUse"
     x1="23.99999"
     x2="23.99999"
     xlink:href="#c"
     y1="4.999989"
     y2="43" />
  <linearGradient
     id="c">
    <stop
       offset="0"
       stop-color="#fff"
       id="stop8" />
    <stop
       offset=".06316455"
       stop-color="#fff"
       stop-opacity=".235294"
       id="stop10" />
    <stop
       offset=".95056331"
       stop-color="#fff"
       stop-opacity=".156863"
       id="stop12" />
    <stop
       offset="1"
       stop-color="#fff"
       stop-opacity=".392157"
       id="stop14" />
  </linearGradient>
  <linearGradient
     id="d"
     gradientTransform="matrix(.49999998 0 0 .25 -.999998 2.999819)"
     gradientUnits="userSpaceOnUse"
     x1="23.954144"
     x2="23.954144"
     y1="15.999304"
     y2="19.963179">
    <stop
       offset="0"
       id="stop17" />
    <stop
       offset="1"
       stop-opacity="0"
       id="stop19" />
  </linearGradient>
  <linearGradient
     id="e"
     gradientUnits="userSpaceOnUse"
     x1="8.295028"
     x2="8.295028"
     y1="-4.283906"
     y2="16.849756">
    <stop
       offset="0"
       stop-color="#cdf87e"
       id="stop22" />
    <stop
       offset=".26238"
       stop-color="#a2e34f"
       id="stop24" />
    <stop
       offset=".66093999"
       stop-color="#68b723"
       id="stop26" />
    <stop
       offset="1"
       stop-color="#1d7e0d"
       id="stop28" />
  </linearGradient>
  <linearGradient
     id="f"
     gradientUnits="userSpaceOnUse"
     x1="11.001243"
     x2="11.001243"
     xlink:href="#c"
     y1="2.268861"
     y2="19.728326" />
  <rect
     fill="url(#a)"
     height="20"
     rx=".527778"
     ry=".555556"
     width="19"
     x="2.000001"
     y="1.999818"
     id="rect32" />
  <path
     d="m2.50125 2.498592h17.938934v19.501226h-17.938934z"
     fill="none"
     stroke="url(#b)"
     stroke-linecap="round"
     stroke-linejoin="round"
     stroke-width="1.100222"
     id="path34" />
  <path
     d="m1.000001 6.999818h21v1h-21z"
     fill="url(#d)"
     opacity=".15"
     id="path36" />
  <path
     d="m1.5 6.163481v15.300155c0 .574146.462218 1.036364 1.036364 1.036364h17.927455c.574146 0 1.036364-.462218 1.036364-1.036364v-15.300155"
     fill="none"
     opacity=".3"
     stroke="#000"
     id="path38" />
  <path
     d="m2.536364 1.499845c-.574145 0-1.036364.462218-1.036364 1.036364v3.963609h20.000182v-3.963609c0-.574146-.462218-1.036364-1.036363-1.036364z"
     fill="url(#e)"
     id="path40" />
  <g
     fill="none"
     id="g48">
    <path
       d="m2.536364 1.499845c-.574146 0-1.036364.462218-1.036364 1.036364l.000001 3.963609h20.000182l-.000001-3.963609c0-.574146-.462218-1.036364-1.036364-1.036364z"
       opacity=".4"
       stroke="#126400"
       stroke-linecap="round"
       id="path42" />
    <path
       d="m17.500013 16.499818h-12.9999991zm-.0096-5.98755-12.9904261-.0093v7.99685h12.9999991zm.0096 3.98755h-13m13-2h-13m2.5453926-1.979205-.017614 7.979125m2.5487754-7.944393-.0034 7.944393m2.534768-7.972179.0037 7.972179m2.521631-7.999964.01314 7.999964"
       opacity=".2"
       stroke="#fff"
       id="path44" />
    <path
       d="m2.500001 2.499818v3h18v-3z"
       opacity=".5"
       stroke="url(#f)"
       stroke-linecap="round"
       stroke-linejoin="round"
       id="path46" />
  </g>
  <path
     d="m6.000001 7h1v14.999818h-1z"
     opacity=".321"
     id="path50" />
  <path
     d="m11.000001 7h1v14.999818h-1z"
     opacity=".321"
     id="path52" />
  <path
     d="m16.000002 7h1v14.999818h-1z"
     opacity=".321"
     id="path54" />
  <path
     d="m2.000001 9.999818h4v1h-4z"
     opacity=".321"
     id="path56" />
  <path
     d="m7.000001 9.999818h4v1h-4z"
     opacity=".321"
     id="path58" />
  <path
     d="m12.000001 9.999818h4v1h-4z"
     opacity=".321"
     id="path60" />
  <path
     d="m17.000002 9.999818h4v1h-4z"
     opacity=".321"
     id="path62" />
  <path
     d="m2.000001 13.999818h4v1h-4z"
     opacity=".321"
     id="path64" />
  <path
     d="m7.000001 13.999818h4v1h-4z"
     opacity=".321"
     id="path66" />
  <path
     d="m12.000001 13.999818h4v1h-4z"
     opacity=".321"
     id="path68" />
  <path
     d="m17.000002 13.999818h4v1h-4z"
     opacity=".321"
     id="path70" />
  <path
     d="m2.000001 17.999819h4v1h-4z"
     opacity=".321"
     id="path72" />
  <path
     d="m7.000001 17.999819h4v1h-4z"
     opacity=".321"
     id="path74" />
  <path
     d="m12.000001 17.999819h4v1h-4z"
     opacity=".321"
     id="path76" />
  <path
     d="m17.000002 17.999819h4v1h-4z"
     opacity=".321"
     id="path78" />
  <g
     fill="#126400"
     id="g86">
    <path
       d="m6.000001 1.999818h1v4.000182h-1z"
       opacity=".4"
       id="path80" />
    <path
       d="m11.000001 1.999818h1v4.000182h-1z"
       opacity=".4"
       id="path82" />
    <path
       d="m16.000002 1.999818h1v4.000182h-1z"
       opacity=".4"
       id="path84" />
  </g>
  <path
     d="m 7,11 h 4 v 3 H 7 Z"
     id="path88"
     inkscape:connector-curvature="0"
     style="fill:#fcaf3e"
     sodipodi:nodetypes="ccccc" />
  <path
     d="m 7,10 c -0.554,0 -1,0.446 -1,1 v 3 c 0,0.554 0.446,1 1,1 h 4 c 0.554,0 1,-0.446 1,-1 v -3 c 0,-0.554 -0.446,-1 -1,-1 z m 0,1 h 4 v 3 H 7 Z"
     id="path90"
     inkscape:connector-curvature="0"
     style="fill:#ce5c00"
     sodipodi:nodetypes="sssssssssccccc" />
  <g
     transform="matrix(0.73400013,0,0,0.73400013,11.632274,12.132274)"
     id="g113">
    <path
       style="display:block;fill:url(#a-3);stroke:url(#b-5);stroke-linejoin:round"
       inkscape:connector-curvature="0"
       d="M 16.798828,12.5 C 16.633564,12.5 16.5,12.711412 16.5,12.974609 v 0.763672 h -0.09766 l -1.123047,0.480469 -0.07227,0.07422 -0.552734,-0.552735 c -0.18611,-0.186109 -0.430016,-0.241858 -0.546875,-0.125 l -0.992188,0.992188 c -0.116858,0.116859 -0.06111,0.360765 0.125,0.546875 l 0.552735,0.552734 -0.07422,0.07227 -0.480469,1.123047 V 17 H 12.474609 C 12.211412,17 12,17.133564 12,17.298828 v 1.402344 C 12,18.866436 12.211412,19 12.474609,19 h 0.763672 v 0.105469 l 0.480469,1.123047 0.07031,0.06836 -0.548828,0.548828 c -0.186109,0.186109 -0.241858,0.430016 -0.125,0.546875 l 0.992188,0.992188 c 0.116859,0.116859 0.360765,0.06111 0.546875,-0.125 l 0.548828,-0.548828 0.07617,0.07812 1.123047,0.482422 H 16.5 v 0.753907 C 16.5,23.288589 16.633564,23.5 16.798828,23.5 h 1.402344 C 18.366436,23.5 18.5,23.288589 18.5,23.025391 v -0.753907 h 0.105469 l 1.123047,-0.482422 0.07227,-0.07422 0.544922,0.544922 c 0.18611,0.186108 0.430016,0.241859 0.546875,0.125 l 0.992188,-0.992188 c 0.116858,-0.116859 0.06111,-0.360766 -0.125,-0.546875 l -0.544922,-0.544922 0.07422,-0.07227 0.482422,-1.123047 V 19 h 0.753907 C 22.788588,19 23,18.866436 23,18.701172 V 17.298828 C 23,17.133564 22.788588,17 22.525391,17 h -0.753907 v -0.09766 l -0.482422,-1.123047 -0.07812,-0.07617 0.548828,-0.548828 c 0.186109,-0.18611 0.241858,-0.430016 0.125,-0.546875 l -0.992188,-0.992188 c -0.116859,-0.116858 -0.360765,-0.06111 -0.546875,0.125 l -0.548828,0.548828 -0.06836,-0.07031 -1.123047,-0.480469 H 18.5 V 12.974609 C 18.5,12.711412 18.366436,12.5 18.201172,12.5 Z m 0.705078,4 c 0.829457,0 1.503906,0.674449 1.503906,1.503906 10e-7,0.829457 -0.674449,1.503906 -1.503906,1.503906 C 16.674449,19.507813 16,18.833363 16,18.003906 16,17.174449 16.674449,16.5 17.503906,16.5 Z"
       display="block"
       transform="matrix(1.3623976,0,0,1.3623976,-15.847782,-16.528981)"
       id="path107" />
    <path
       style="opacity:0.05"
       inkscape:connector-curvature="0"
       d="M 8,3.465116 C 5.4994229,3.465116 3.4651163,5.499423 3.4651163,8 3.4651163,10.500577 5.4994229,12.534884 8,12.534884 10.500576,12.534883 12.534884,10.500577 12.534884,8 12.534884,5.499423 10.500576,3.465116 8,3.465116 Z M 8,5.55814 c 1.347907,0 2.44186,1.093953 2.44186,2.44186 0,1.347907 -1.093953,2.44186 -2.44186,2.44186 C 6.652093,10.44186 5.5581395,9.347907 5.5581395,8 5.5581395,6.652093 6.652093,5.55814 8,5.55814 Z"
       id="path109" />
    <path
       style="fill:none;stroke:url(#c-3);stroke-width:1.35227501"
       inkscape:connector-curvature="0"
       d="M 8.0000001,4 C 5.7943997,4 3.9999999,5.7944001 3.9999999,8.0000008 3.9999999,10.2056 5.7943997,12 8.0000001,12 10.2056,12 12,10.2056 12,8.0000008 12,5.7944001 10.2056,4 8.0000001,4 Z"
       id="path111" />
  </g>
</svg>
